dist/svgs/unicons/line/focus-target.svg

<svg xmlns="http://www.w3.org/2000/svg" viewBox="0 0 24 24"><path d="M3 9a1 1 0 001-1V5a1 1 0 011-1h3a1 1 0 000-2H5a3 3 0 00-3 3v3a1 1 0 001 1zm5 11H5a1 1 0 01-1-1v-3a1 1 0 00-2 0v3a3 3 0 003 3h3a1 1 0 000-2zm9-7a1 1 0 000-2h-1.14A4 4 0 0013 8.14V7a1 1 0 00-2 0v1.14A4 4 0 008.14 11H7a1 1 0 000 2h1.14A4 4 0 0011 15.86V17a1 1 0 002 0v-1.14A4 4 0 0015.86 13zm-5 1a2 2 0 112-2 2 2 0 01-2 2zm9 1a1 1 0 00-1 1v3a1 1 0 01-1 1h-3a1 1 0 000 2h3a3 3 0 003-3v-3a1 1 0 00-1-1zM19 2h-3a1 1 0 000 2h3a1 1 0 011 1v3a1 1 0 002 0V5a3 3 0 00-3-3z"/></svg>

<svg xmlns="http://www.w3.org/2000/svg" viewBox="0 0 24 24"><path d="M3,9A1,1,0,0,0,4,8V5A1,1,0,0,1,5,4H8A1,1,0,0,0,8,2H5A3,3,0,0,0,2,5V8A1,1,0,0,0,3,9ZM8,20H5a1,1,0,0,1-1-1V16a1,1,0,0,0-2,0v3a3,3,0,0,0,3,3H8a1,1,0,0,0,0-2Zm9-7a1,1,0,0,0,0-2H15.86A4,4,0,0,0,13,8.14V7a1,1,0,0,0-2,0V8.14A4,4,0,0,0,8.14,11H7a1,1,0,0,0,0,2H8.14A4,4,0,0,0,11,15.86V17a1,1,0,0,0,2,0V15.86A4,4,0,0,0,15.86,13Zm-5,1a2,2,0,1,1,2-2A2,2,0,0,1,12,14Zm9,1a1,1,0,0,0-1,1v3a1,1,0,0,1-1,1H16a1,1,0,0,0,0,2h3a3,3,0,0,0,3-3V16A1,1,0,0,0,21,15ZM19,2H16a1,1,0,0,0,0,2h3a1,1,0,0,1,1,1V8a1,1,0,0,0,2,0V5A3,3,0,0,0,19,2Z"/></svg>
